!!!!SEGMENT: pl-kk--kk-i-7--056-003_certon-pierre--missa-regnum-mundi-sanctus.krn
!!!cenid: 16xx:889
!!!COM: Certon, Pierre
!!!COM-rism: pe30006023
!!!CDT: ~1510-1572/02/23
!!!CNT: French
!!!OTL: Missa Regnum Mundi – Sanctus
!!!PDT:
!!!AGN: Sacred; Mass
!!!SMS-siglum: PL-Kk
!!!SMS-shelfmark: Kk.I.7
!!!NIFC-rismID: 300258133
!!!URL-scan: http://repozytorium.nifc.pl/skany/pl-kk-nut--i-7
!!!ONB-nifc: UWAGA: C (skan 0054-0055, s.100-103), A (0138-0139, s.96-99), T(0214-0216, s.91-94), B(0301-0302, s.89-91). Części Mszy: 1. Kyrie, 2. Et in terra, 3. Sanctus, 4. Agnus Dei. Agnus III" rozpisany na 5 głosów. Dodatkowy głos zapisany w księdze T na stronie 94
!!!SMS-variant:
!!!SMS-altvar:
**kern	**text	**kern	**text	**kern	**text	**kern	**text
*part4	*part4	*part3	*part3	*part2	*part2	*part1	*part1
*staff4	*staff4	*staff3	*staff3	*staff2	*staff2	*staff1	*staff1
*I"BASSVS.	*	*I"TENOR.	*	*I"ALTVS.	*	*I"CANTVS.	*
*I'B	*	*I'T	*	*I'A	*	*I'S	*
*clefC4	*	*clefC3	*	*clefC2	*	*clefG2	*
*k[b-]	*	*k[b-]	*	*k[b-]	*	*k[b-]	*
*M2/1	*	*M2/1	*	*M2/1	*	*M2/1	*
*met(C|)	*	*met(C|)	*	*met(C|)	*	*met(C|)	*
=1-	=1-	=1-	=1-	=1-	=1-	=1-	=1-
!	!	!	!	!LO:TX:a:t=P:problem:w źródle znaki przykluczowe b- B-, zapisane jeden nad drugim, w pionie	!	!	!
!LO:TX:t=P:problem:kreska pseudotaktowa	!	!	!	!LO:TX:t=P:problem:kreska pseudotaktowa	!	!	!
00r	.	00r	.	0r	.	0g	San-
=2-	=2-	=2-	=2-	=2-	=2-	=2-	=2-
!	!	!	!	!	!	!LO:TX:t=P:problem:kreska pseudotaktowa	!
.	.	.	.	0d	San-	1dd	-ctus
.	.	.	.	.	.	1.dd	.
=3-	=3-	=3-	=3-	=3-	=3-	=3-	=3-
!	!	!LO:TX:t=P:problem:kreska pseudotaktowa	!	!	!	!	!
0G	San-	00r	.	0g	-ctus	.	.
.	.	.	.	.	.	4cc\	San-
.	.	.	.	.	.	4b-\	.
*	*	*	*	*2\right	*	*2\right	*
.	.	.	.	.	.	2dd\	.
.	.	.	.	.	.	2ee\	.
=4-	=4-	=4-	=4-	=4-	=4-	=4-	=4-
!LO:TX:t=P:problem:kreska pseudotaktowa	!	!	!	!	!	!	!
0d,	-ctus	.	.	2.f\	.	2.ff\	.
!	!	!	!	!	!	!LO:TX:t=P:problem:kreska pseudotaktowa	!
.	.	.	.	4g\	San-	4ee\	.
.	.	.	.	2a\	.	4dd\	.
.	.	.	.	.	.	4cc\	.
.	.	.	.	2.b-\	.	2.dd\	.
=5-	=5-	=5-	=5-	=5-	=5-	=5-	=5-
!LO:TX:t=P:problem:kreska pseudotaktowa	!	!	!	!	!	!	!
0rA	.	0G	San-	.	.	.	.
.	.	.	.	4a\	.	4cc\	.
.	.	.	.	4g\	.	4b-/	.
!	!	!	!	!LO:TX:t=P:problem:kreska pseudotaktowa	!	!	!
.	.	.	.	4f\	.	4a/	.
.	.	.	.	1g	.	1b-	.
=6-	=6-	=6-	=6-	=6-	=6-	=6-	=6-
*lig	*	*	*	*	*	*	*
!LO:N:vis=0	!	!	!	!	!	!	!
*	*	*	*	*lig	*	*	*
!	!	!	!	!	!	!LO:TX:t=P:problem:kreska pseudotaktowa	!
0D	San-	1d	.	1a	.	1a	-ctus
*	*	*2\right	*	*	*	*	*
*	*	*	*	*	*	*	*ij
.	.	2d\	-ctus	1A	.	2.dd\	San-
.	.	1d\	.	.	.	.	.
.	.	.	.	.	.	4cc\	.
*	*	*	*	*Xlig	*	*	*
=7-	=7-	=7-	=7-	=7-	=7-	=7-	=7-
!LO:N:vis=0	!	!	!	!	!	!	!
0G	.	.	.	2G/	.	2b-/	.
.	.	4c/	.	2A/	.	1a	.
!	!	!LO:TX:t=P:problem:kreska pseudotaktowa	!	!	!	!	!
.	.	4B-/	.	.	.	.	.
.	.	2d\	San-	1B-	.	.	.
.	.	2e\	.	.	.	2g/	.
*Xlig	*	*	*	*	*	*	*
=8-	=8-	=8-	=8-	=8-	=8-	=8-	=8-
!	!	!	!	!LO:TX:t=P:problem:kreska pseudotaktowa	!	!LO:TX:t=P:problem:kreska pseudotaktowa	!
2.F/	.	1f	.	1A	-ctus	1a	-ctus
*	*	*	*	*	*	*	*Xij
!LO:TX:t=P:problem:kreska pseudotaktowa	!	!	!	!	!	!	!
4G/	.	.	.	.	.	.	.
*2\right	*	*	*	*	*	*	*
2A\	.	2e\	.	1r	.	1r	.
2.B-\	.	2.d\	.	.	.	.	.
=9-	=9-	=9-	=9-	=9-	=9-	=9-	=9-
.	.	.	.	2r	.	0dd	San-
4A/	.	4c/	.	.	.	.	.
4G/	.	4B-/	.	1g	Do-	.	.
!	!	!LO:TX:t=P:problem:kreska pseudotaktowa	!	!	!	!	!
4F/	.	4A/	.	.	.	.	.
1G	.	1B-	.	.	.	.	.
.	.	.	.	2g\	-mi-	.	.
=10-	=10-	=10-	=10-	=10-	=10-	=10-	=10-
!LO:TX:t=P:problem:kreska pseudotaktowa	!	!	!	!	!	!LO:TX:t=P:problem:kreska pseudotaktowa	!
1D	-ctus	2A/	.	2f\	-n(us)	00dd	-ct(us)
.	.	1B-	.	2f\	De-	.	.
2rF	.	.	.	2.b-\	.	.	.
1G/	Do-	4A/	.	.	.	.	.
!	!	!	!	!LO:TX:t=P:problem:kreska pseudotaktowa	!	!	!
.	.	4G/	.	4a\	.	.	.
=11-	=11-	=11-	=11-	=11-	=11-	=11-	=11-
!	!	!LO:TX:t=P:problem:kreska pseudotaktowa	!	!	!	!	!
.	.	1d	-ctus	4g\	-us	.	.
.	.	.	.	4f\	.	.	.
2G/	-mi-	.	.	1b-	.	.	.
2F,/	-n(us)	2r	.	.	.	.	.
2F/	De-	1d\	Do-	2a\	Sab-	.	.
=12-	=12-	=12-	=12-	=12-	=12-	=12-	=12-
1B-	.	.	.	4g\	.	0r	.
.	.	.	.	4f\	.	.	.
.	.	2d\	-mi-	4e/	.	.	.
.	.	.	.	4d/	.	.	.
1A	.	2c\	-n(us)	2e\	.	.	.
.	.	2c\	De-	2.f\	.	.	.
=13-	=13-	=13-	=13-	=13-	=13-	=13-	=13-
!LO:TX:t=P:problem:kreska pseudotaktowa	!	!	!	!	!	!	!
0D	-us	2.f\	.	.	.	1r	.
.	.	.	.	4e/	.	.	.
.	.	.	.	4d/	.	.	.
!	!	!LO:TX:t=P:problem:kreska pseudotaktowa	!	!	!	!	!
.	.	4e\	-us	4e/	.	.	.
.	.	4d\	.	4f\	.	2r	.
.	.	4c\	.	4g\	.	.	.
.	.	4B-/	.	1a\	.	1dd\	Do-
.	.	4A/	Sab-	.	.	.	.
=14-	=14-	=14-	=14-	=14-	=14-	=14-	=14-
0rA	.	1B-	.	.	.	.	.
.	.	.	.	2g\	-ba-	2dd\	-mi-
!	!	!	!	!LO:TX:t=P:problem:kreska pseudotaktowa	!	!	!
.	.	4A/	.	1a	-oth	2cc\	-n(us)
.	.	4B-/	.	.	.	.	.
.	.	4c/	.	.	.	2cc\	DE-
.	.	4A/	.	.	.	.	.
=15-	=15-	=15-	=15-	=15-	=15-	=15-	=15-
!LO:TX:t=P:problem:kreska pseudotaktowa	!	!	!	!	!	!	!
1rA	.	2B-/	.	2rg	.	2.ff\	-US
.	.	2F/	.	2a\	Sab-	.	.
.	.	.	.	.	.	4ee\	.
2rF	.	4G/	.	2b-\	.	4dd\	.
.	.	4A/	.	.	.	4cc\	.
*	*ij	*	*	*	*	*	*
1G/	Do-	4B-/	-ba-	2.g\	.	4b-/	.
.	.	4c\	.	.	.	4a/	.
=16-	=16-	=16-	=16-	=16-	=16-	=16-	=16-
!	!	!LO:TX:t=P:problem:kreska pseudotaktowa	!	!	!	!	!
.	.	1d	-oth.	.	.	1b-	Sab-
.	.	.	.	4f\	.	.	.
2G/	-mi-	.	.	4d/	.	.	.
!	!	!	!	!LO:TX:t=P:problem:kreska pseudotaktowa	!	!	!
.	.	.	.	4e/	.	.	.
!	!	!	!	!LO:LB:g=original	!	!	!
2F/	-n(us)	2r	.	4f\	.	2a/	.
.	.	.	.	4e\	.	.	.
2F/	De-	1d\	Do-	1f\	.	1a/	.
=17-	=17-	=17-	=17-	=17-	=17-	=17-	=17-
!LO:TX:t=P:problem:kreska pseudotaktowa	!	!	!	!	!	!	!
1B-	-us	.	.	.	.	.	.
*	*Xij	*	*	*	*	*	*
!	!	!LO:TX:t=P:problem:kreska pseudotaktowa	!	!	!	!	!
.	.	2d\	-mi-	4e/	.	2g/	-ba-
.	.	.	.	4d/	.	.	.
!	!	!LO:LB:g=original	!	!	!	!	!
!	!	!	!	!	!	!LO:TX:t=P:problem:kreska pseudotaktowa	!
2.A\	Sab-	2c\	-nus	1e	-ba-	0a	-oth
.	.	2c\	De-	.	.	.	.
4G/	.	.	.	.	.	.	.
=18-	=18-	=18-	=18-	=18-	=18-	=18-	=18-
!	!	!	!	!LO:TX:t=P:problem:kreska pseudotaktowa	!	!	!
4F/	.	2.f\	.	1d	-oth.	.	.
4E/	.	.	.	.	.	.	.
2D/	.	.	.	.	.	.	.
.	.	4e\	.	.	.	.	.
!	!	!	!	!	!	!LO:LB:g=original	!
2F/	.	4d\	-us	2r	.	00r	.
.	.	4c\	.	.	.	.	.
2G/	.	1B-/	.	1g\	Do-	.	.
=19-	=19-	=19-	=19-	=19-	=19-	=19-	=19-
2.E/	-ba-	.	.	.	.	.	.
.	.	4A/	Sab-	2g\	-mi-	.	.
!LO:TX:t=P:problem:kreska pseudotaktowa	!	!	!	!	!	!	!
!LO:SIC:v:t=custos D	!	!	!	!	!	!	!
!	!	!LO:TX:t=P:problem:kreska pseudotaktowa	!	!	!	!	!
4E/	.	4G/	.	.	.	.	.
!LO:LB:g=original	!	!	!	!	!	!	!
2D,/	-oth.	2A/	.	2f\	-n(us)	.	.
!	!	!	!	!LO:TX:t=P:problem:kreska pseudotaktowa	!	!	!
2D/	Sab-	2.d\	.	2f\	De-	.	.
=20-	=20-	=20-	=20-	=20-	=20-	=20-	=20-
4G/	.	.	.	0b-	-us	.	.
4A/	.	4c\	.	.	.	.	.
4B-/	.	4d\	.	.	.	.	.
4c/	.	4e\	.	.	.	.	.
!	!	!	!	!	!	!LO:TX:t=P:problem:kreska pseudotaktowa	!
2d\	.	2f\	.	.	.	00r	.
2B-\	.	1g\	.	.	.	.	.
=21-	=21-	=21-	=21-	=21-	=21-	=21-	=21-
2c\	.	.	.	1a	.	.	.
!LO:TX:t=P:problem:kreska pseudotaktowa	!	!LO:TX:t=P:problem:kreska pseudotaktowa	!	!	!	!	!
2d\	.	2f\	.	.	.	.	.
2G/	.	2e\	.	1g	.	.	.
2.B-\	.	2.d\	.	.	.	.	.
=22-	=22-	=22-	=22-	=22-	=22-	=22-	=22-
.	.	.	.	2f\	Sab-	.	.
4A/	.	4c/	.	.	.	.	.
2.G/	.	4B-/	.	1e	.	.	.
.	.	4A/	.	.	.	.	.
.	.	4B-/	.	.	.	2rg	.
4F/	.	4A/	.	.	.	.	.
4E/	.	4G/	.	1d/	.	1g/	Do-
!	!	!LO:TX:t=P:problem:kreska pseudotaktowa	!	!	!	!	!
4D/	.	4F/	.	.	.	.	.
=23-	=23-	=23-	=23-	=23-	=23-	=23-	=23-
2.E/	-ba-	1G	.	.	.	.	.
.	.	.	.	2c/	.	2g/	-mi-
4E/	.	.	.	.	.	.	.
!LO:TX:t=P:problem:kreska pseudotaktowa	!	!	!	!	!	!	!
1D	-oth.	2A/	.	2d/	.	2f/	-n(us)
*	*	*	*	*lig	*	*	*
!	!	!LO:TX:t=P:problem:kreska pseudotaktowa	!	!	!	!	!
.	.	[<2B-/	.	1d/	.	2f/	DE-
=24-	=24-	=24-	=24-	=24-	=24-	=24-	=24-
!LO:N:vis=1	!	!	!	!	!	!	!
2rA	.	2B-/]	.	.	.	1b-	.
*lig	*	*	*	*	*	*	*
1D	Sab-	4A/	.	1g	.	.	.
.	.	4G/	.	.	.	.	.
.	.	2.d\	.	.	.	1a	-US
*	*	*	*	*Xlig	*	*	*
1G/	.	.	.	2f\	.	.	.
.	.	4c/	.	.	.	.	.
*Xlig	*	*	*	*	*	*	*
=25-	=25-	=25-	=25-	=25-	=25-	=25-	=25-
.	.	4B-/	.	2.g\	.	2g/	Sab-
.	.	4A/	.	.	.	.	.
1rA	.	2B-/	.	.	.	1b-	.
.	.	.	.	4f\	.	.	.
.	.	2G/	.	2d/	.	.	.
2F/	.	2A/	.	2f\	.	1a/	.
=26-	=26-	=26-	=26-	=26-	=26-	=26-	=26-
2G/	.	2B-/	.	1e	.	.	.
2C/	.	2c/	.	.	.	1g	.
2.D/	.	2.A/	.	1d	-ba-	.	.
.	.	.	.	.	.	2f#X/	-ba-
4D/	-ba-	4A/	-ba-	.	.	.	.
=27-	=27-	=27-	=27-	=27-	=27-	=27-	=27-
0G;>	-oth.	0Bn;>	-oth.	0d;>	-oth.	0g;>	-oth.
!	!	!LO:LB:g=original	!	!	!	!	!
=28||	=28||	=28||	=28||	=28||	=28||	=28||	=28||
*M2/1	*	*M2/1	*	*M2/1	*	*M2/1	*
*met(C|)	*	*met(C|)	*	*met(C|)	*	*met(C|)	*
!LO:TX:t=P:problem:kreska pseudotaktowa	!	!	!	!LO:TX:a:t=P:problem:w źródle ta adnotacja zapisana na pięciolinii	!	!LO:TX:a:t=P:problem:w źródle ta adnotacja zapisana na pięciolinii	!
!	!	!	!	!LO:TX:a:i:t=Pleni sunt Tacet //	!	!LO:TX:a:i:t=Pleni sunt Tacet // Osanna Vertat	!
00r	.	1.d	Ple-	0ryy	.	0ryy	.
.	.	2c\	-ni	.	.	.	.
=29-	=29-	=29-	=29-	=29-	=29-	=29-	=29-
.	.	2d\	sunt	0ryy	.	0ryy	.
.	.	2G/	cae-	.	.	.	.
!	!	!LO:TX:t=P:problem:kreska pseudotaktowa	!	!	!	!	!
.	.	0.d	-li	.	.	.	.
=30-	=30-	=30-	=30-	=30-	=30-	=30-	=30-
1.G	Ple-	.	.	0ryy	.	0ryy	.
.	.	.	.	.	.	.	.
2F/	-ni-	.	.	.	.	.	.
=31-	=31-	=31-	=31-	=31-	=31-	=31-	=31-
2G/	-sunt	1e	et	0ryy	.	0ryy	.
2C/	.	.	.	.	.	.	.
0.G	cae-	2.d\	ter-	.	.	.	.
.	.	4c/	.	.	.	.	.
=32-	=32-	=32-	=32-	=32-	=32-	=32-	=32-
.	.	4B-/	.	0ryy	.	0ryy	.
.	.	4A/	.	.	.	.	.
.	.	2.B-/	.	.	.	.	.
.	.	.	.	.	.	.	.
.	.	4G/	.	.	.	.	.
.	.	2g\	.	.	.	.	.
=33-	=33-	=33-	=33-	=33-	=33-	=33-	=33-
1A	-li	2f\	.	0ryy	.	0ryy	.
.	.	1e	.	.	.	.	.
2G/	et	.	.	.	.	.	.
2F/	.	1d\	.	.	.	.	.
=34-	=34-	=34-	=34-	=34-	=34-	=34-	=34-
!LO:TX:t=P:problem:kreska pseudotaktowa	!	!	!	!	!	!	!
1E	ter-	.	.	0ryy	.	0ryy	.
.	.	2c\	.	.	.	.	.
!LO:TX:t=P:problem:kreska pseudotaktowa	!	!LO:TX:t=P:problem:kreska pseudotaktowa	!	!	!	!	!
1D	-ra	0.d	-ra	.	.	.	.
!LO:PB:g=original	!	!	!	!	!	!	!
=35-	=35-	=35-	=35-	=35-	=35-	=35-	=35-
2rF	.	.	.	0ryy	.	0ryy	.
2.G/	glo-	.	.	.	.	.	.
.	.	.	.	.	.	.	.
4A/	.	.	.	.	.	.	.
4B-/	.	.	.	.	.	.	.
!LO:TX:t=P:problem:kreska pseudotaktowa	!	!	!	!	!	!	!
4G/	.	.	.	.	.	.	.
=36-	=36-	=36-	=36-	=36-	=36-	=36-	=36-
2A\	.	2r	.	0ryy	.	0ryy	.
2G/	-ri-	2.d\	glo-	.	.	.	.
2.B-\	-a	.	.	.	.	.	.
.	.	4e\	.	.	.	.	.
.	.	4f\	.	.	.	.	.
!LO:TX:t=P:problem:kreska pseudotaktowa	!	!	!	!	!	!	!
4A/	.	4d\	.	.	.	.	.
=37-	=37-	=37-	=37-	=37-	=37-	=37-	=37-
4G/	.	2e\	.	0ryy	.	0ryy	.
4F/	.	.	.	.	.	.	.
!LO:TX:t=P:problem:kreska pseudotaktowa	!	!LO:TX:t=P:problem:kreska pseudotaktowa	!	!	!	!	!
2G/	.	2d\	-ri-	.	.	.	.
2D/	.	2.f\	-a	.	.	.	.
2F/	.	.	.	.	.	.	.
.	.	4e\	.	.	.	.	.
=38-	=38-	=38-	=38-	=38-	=38-	=38-	=38-
2G/	.	4d\	.	0ryy	.	0ryy	.
.	.	4c\	.	.	.	.	.
1B-	.	2.d\	.	.	.	.	.
.	.	4c/	.	.	.	.	.
1A\	.	4B-/	.	.	.	.	.
.	.	4A/	.	.	.	.	.
=39-	=39-	=39-	=39-	=39-	=39-	=39-	=39-
.	.	1B-	tu-	0ryy	.	0ryy	.
2G/	tu-	.	.	.	.	.	.
!LO:TX:t=P:problem:kreska pseudotaktowa	!	!LO:TX:t=P:problem:kreska pseudotaktowa	!	!	!	!	!
1A	-a	0.A	-a	.	.	.	.
=40-	=40-	=40-	=40-	=40-	=40-	=40-	=40-
2rF	.	.	.	0ryy	.	0ryy	.
2.D/	glo-	.	.	.	.	.	.
.	.	.	.	.	.	.	.
4E/	.	.	.	.	.	.	.
4F/	.	.	.	.	.	.	.
!LO:TX:t=P:problem:kreska pseudotaktowa	!	!	!	!	!	!	!
4D/	.	.	.	.	.	.	.
=41-	=41-	=41-	=41-	=41-	=41-	=41-	=41-
2E/	.	2r	.	0ryy	.	0ryy	.
2D/	.	2.d\	glo-	.	.	.	.
2G/	.	.	.	.	.	.	.
.	.	4e\	.	.	.	.	.
!LO:TX:t=P:problem:kreska pseudotaktowa	!	!	!	!	!	!	!
2F/	-ri-	4f\	.	.	.	.	.
.	.	4d\	.	.	.	.	.
=42-	=42-	=42-	=42-	=42-	=42-	=42-	=42-
2.G/	-a	2e\	-ri-	0ryy	.	0ryy	.
.	.	1d	-a	.	.	.	.
!LO:TX:t=P:problem:kreska pseudotaktowa	!	!	!	!	!	!	!
4A/	.	.	.	.	.	.	.
2B-\	.	.	.	.	.	.	.
2c\	tu-	1g\	.	.	.	.	.
=43-	=43-	=43-	=43-	=43-	=43-	=43-	=43-
!LO:TX:t=P:problem:kreska pseudotaktowa	!	!	!	!	!	!	!
1A	-a	.	.	0ryy	.	0ryy	.
.	.	2f\	tu-	.	.	.	.
2.G/	glo-	2g\	.	.	.	.	.
!	!	!LO:TX:t=P:problem:kreska pseudotaktowa	!	!	!	!	!
!	!	!LO:SIC:v:t=custos d	!	!	!	!	!
.	.	2e\	.	.	.	.	.
4F/	.	.	.	.	.	.	.
!	!	!LO:LB:g=original	!	!	!	!	!
=44-	=44-	=44-	=44-	=44-	=44-	=44-	=44-
4G/	.	2.d\	-a	0ryy	.	0ryy	.
4A/	.	.	.	.	.	.	.
1B-	.	.	.	.	.	.	.
.	.	4c\	.	.	.	.	.
.	.	4d\	glo-	.	.	.	.
.	.	4e\	.	.	.	.	.
!LO:TX:t=P:problem:kreska pseudotaktowa	!	!LO:TX:t=P:problem:kreska pseudotaktowa	!	!	!	!	!
2A/	.	2f\	.	.	.	.	.
=45-	=45-	=45-	=45-	=45-	=45-	=45-	=45-
2.G/	.	2e\	.	0ryy	.	0ryy	.
.	.	2.d\	.	.	.	.	.
8F/L	-ri-	.	.	.	.	.	.
8E/J	.	.	.	.	.	.	.
2F/	-a	.	.	.	.	.	.
.	.	4c/	.	.	.	.	.
2G/	.	4B-/	.	.	.	.	.
.	.	4A/	.	.	.	.	.
=46-	=46-	=46-	=46-	=46-	=46-	=46-	=46-
2E/	tu-	2G/	.	0ryy	.	0ryy	.
4D/	.	1d	.	.	.	.	.
!LO:TX:t=P:problem:kreska pseudotaktowa	!	!	!	!	!	!	!
4E/	.	.	.	.	.	.	.
4F/	.	.	.	.	.	.	.
4G/	.	.	.	.	.	.	.
1A\	.	1c\	-ri-	.	.	.	.
=47-	=47-	=47-	=47-	=47-	=47-	=47-	=47-
.	.	.	.	0ryy	.	0ryy	.
1G	.	2B-/	-a	.	.	.	.
.	.	1A	tu-	.	.	.	.
!LO:TX:a:t=P:problem:# above	!	!	!	!	!	!	!
2F#X/	.	.	.	.	.	.	.
=48-	=48-	=48-	=48-	=48-	=48-	=48-	=48-
0G;>	-a.	0Bn;>	-a.	0ryy	.	0ryy	.
!LO:LB:g=original	!	!	!	!LO:LB:g=original	!	!LO:PB:g=original	!
=49||	=49||	=49||	=49||	=49||	=49||	=49||	=49||
*M2/1	*	*M2/1	*	*M2/1	*	*M2/1	*
*met(C|)	*	*met(C|)	*	*met(C|)	*	*met(C|)	*
!	!	!	!	!	!	!LO:TX:t=P:problem:kreska pseudotaktowa	!
00r	.	00r	.	1.g	O-	0r	.
.	.	.	.	2a\	-san-	.	.
=50-	=50-	=50-	=50-	=50-	=50-	=50-	=50-
.	.	.	.	2.b-\	.	1.dd	O-
.	.	.	.	8a\L	.	.	.
.	.	.	.	8g\J	.	.	.
.	.	.	.	2b-\	.	.	.
!	!	!	!	!LO:TX:t=P:problem:kreska pseudotaktowa	!	!	!
.	.	.	.	2a\	.	2ee\	.
=51-	=51-	=51-	=51-	=51-	=51-	=51-	=51-
!LO:TX:t=P:problem:kreska pseudotaktowa	!	!	!	!	!	!	!
00r	.	1.d	O-	2.f\	.	2.ff\	san-
.	.	.	.	4g\	.	8ee\L	.
.	.	.	.	.	.	8dd\J	.
.	.	.	.	4a\	.	2ff\	.
.	.	.	.	4b-\	.	.	.
!	!	!	!	!	!	!LO:TX:t=P:problem:kreska pseudotaktowa	!
.	.	2e\	.	2.cc\	.	2ee\	-na
=52-	=52-	=52-	=52-	=52-	=52-	=52-	=52-
.	.	2.f\	-san-	.	.	1cc	in
.	.	.	.	4b-\	.	.	.
.	.	.	.	1a	.	.	.
.	.	8e\L	.	.	.	.	.
!	!	!LO:TX:t=P:problem:kreska pseudotaktowa	!	!	!	!	!
.	.	8d\J	.	.	.	.	.
.	.	2f\	.	.	.	2dd\	.
!	!	!	!	!LO:TX:t=P:problem:kreska pseudotaktowa	!	!	!
.	.	2e\	.	2g\	.	1ee\	ex-
=53-	=53-	=53-	=53-	=53-	=53-	=53-	=53-
2rF	.	2c\	.	2a\	.	.	.
1G	O-	2d\	.	1b-	.	1dd	.
!	!	!LO:TX:t=P:problem:kreska pseudotaktowa	!	!	!	!	!
.	.	1e	-na	.	.	.	.
!LO:TX:t=P:problem:kreska pseudotaktowa	!	!	!	!	!	!	!
2A\	.	.	.	4a\	.	2cc\	-cel-
.	.	.	.	4g\	.	.	.
=54-	=54-	=54-	=54-	=54-	=54-	=54-	=54-
!	!	!	!	!LO:TX:t=P:problem:kreska pseudotaktowa	!	!LO:TX:t=P:problem:kreska pseudotaktowa	!
2.B-\	-san-	2r	.	1f	-na	1dd	-sis
.	.	1d\	O-	.	.	.	.
8A/L	.	.	.	.	.	.	.
!LO:TX:t=P:problem:kreska pseudotaktowa	!	!	!	!	!	!	!
8G/J	.	.	.	.	.	.	.
2B-\	.	.	.	00r	.	00r	.
2A\	.	2e\	-san-	.	.	.	.
=55-	=55-	=55-	=55-	=55-	=55-	=55-	=55-
1.F	.	2.f\	.	.	.	.	.
.	.	8e\L	.	.	.	.	.
!	!	!LO:TX:t=P:problem:kreska pseudotaktowa	!	!	!	!	!
.	.	8d\J	.	.	.	.	.
.	.	2f\	.	.	.	.	.
!LO:TX:t=P:problem:kreska pseudotaktowa	!	!	!	!	!	!	!
2G/	.	2e\	.	.	.	.	.
=56-	=56-	=56-	=56-	=56-	=56-	=56-	=56-
1A	.	2.c\	.	.	.	.	.
.	.	4d\	.	.	.	.	.
2.G/	.	2e\	.	2r	.	00r	.
.	.	2.d\	.	2g\	O-	.	.
!LO:TX:t=P:problem:kreska pseudotaktowa	!	!	!	!	!	!	!
4E/	.	.	.	.	.	.	.
=57-	=57-	=57-	=57-	=57-	=57-	=57-	=57-
2F/	.	.	.	2a\	-san-	.	.
.	.	4c/	.	.	.	.	.
1G	.	4B-/	.	1b-	.	.	.
.	.	4A/	.	.	.	.	.
.	.	2G/	.	.	.	.	.
!	!	!LO:TX:t=P:problem:kreska pseudotaktowa	!	!	!	!	!
!	!	!LO:SIC:v:t=custos b	!	!	!	!	!
4F/	.	[<2B-/	.	4a\	.	.	.
!	!	!	!	!LO:TX:t=P:problem:kreska pseudotaktowa	!	!	!
4E/	.	.	.	4g\	.	.	.
!	!	!LO:LB:g=original	!	!	!	!	!
=58-	=58-	=58-	=58-	=58-	=58-	=58-	=58-
2D/	.	4B-/]	.	2b-\	.	.	.
.	.	4A/	.	.	.	.	.
2F/	.	1d	.	2a\	.	.	.
!LO:TX:t=P:problem:kreska pseudotaktowa	!	!	!	!	!	!LO:TX:t=P:problem:kreska pseudotaktowa	!
1E	-na	.	.	1g	.	1r	.
.	.	2c\	.	.	.	.	.
=59-	=59-	=59-	=59-	=59-	=59-	=59-	=59-
!	!	!LO:TX:t=P:problem:kreska pseudotaktowa	!	!	!	!	!
2D,/	.	1d	-na	2f\	.	2r	.
!LO:TX:t=P:problem:kreska pseudotaktowa	!	!	!	!	!	!	!
2G/	in	.	.	1b-	.	1dd	O-
2B-\	ex-	0r	.	.	.	.	.
!	!	!	!	!LO:TX:t=P:problem:kreska pseudotaktowa	!	!	!
2c\	.	.	.	2a\	.	2ee\	-san-
=60-	=60-	=60-	=60-	=60-	=60-	=60-	=60-
2.d\	-cel-	.	.	2f\	.	2.ff\	.
.	.	.	.	2.a\	.	.	.
8c\L	.	.	.	.	.	8ee\L	.
8B-\J	.	.	.	.	.	8dd\J	.
!	!	!LO:TX:t=P:problem:kreska pseudotaktowa	!	!	!	!	!
2A\	.	1r	.	.	.	2ff\	.
.	.	.	.	4g\	.	.	.
!LO:TX:t=P:problem:kreska pseudotaktowa	!	!	!	!	!	!	!
2c\	.	.	.	2e\	na	2ee\	.
=61-	=61-	=61-	=61-	=61-	=61-	=61-	=61-
!	!	!	!	!	!	!LO:TX:t=P:problem:kreska pseudotaktowa	!
1B-	.	2r	.	2f\	.	1dd	-na
.	.	2d\	in	2g\	in	.	.
!LO:TX:t=P:problem:kreska pseudotaktowa	!	!	!	!	!	!	!
1A	-sis.	2e\	ex-	2a\	.	2.cc\	in
.	.	1f\	-cel-	1A/	.	.	.
.	.	.	.	.	.	4b-/	.
=62-	=62-	=62-	=62-	=62-	=62-	=62-	=62-
2rD	.	.	.	.	.	4a/	ex-
.	.	.	.	.	.	4g/	.
!	!	!	!	!LO:TX:t=P:problem:kreska pseudotaktowa	!	!	!
1D	O-	4e\	.	2A/	ex-	1a	-cel-
.	.	4d\	.	.	.	.	.
!	!	!	!	!LO:LB:g=original	!	!	!
.	.	2f\	.	1B-	-cel-	.	.
!LO:TX:t=P:problem:kreska pseudotaktowa	!	!	!	!	!	!	!
2E/	-san-	2e\	.	.	.	2g/	.
=63-	=63-	=63-	=63-	=63-	=63-	=63-	=63-
!	!	!	!	!LO:TX:t=P:problem:kreska pseudotaktowa	!	!LO:TX:t=P:problem:kreska pseudotaktowa	!
2.F/	.	2c/	.	1A,	-ſis.	1a	.
.	.	2.f\	.	.	.	.	.
8E/L	.	.	.	.	.	.	.
8D/J	.	.	.	.	.	.	.
2F/	.	.	.	1d	O-	2a/	.
.	.	4e\	.	.	.	.	.
1G/	.	1d\	.	.	.	1b-\	.
=64-	=64-	=64-	=64-	=64-	=64-	=64-	=64-
.	.	.	.	2e\	-san-	.	.
!	!	!LO:TX:t=P:problem:kreska pseudotaktowa	!	!	!	!	!
2A\	.	2c\	.	1f	-na	1a	.
1B-	-na	2d,\	-siſ	.	.	.	.
!	!	!	!	!	!	!LO:TX:t=P:problem:kreska pseudotaktowa	!
.	.	1d\	in	4e/	.	2g/	.
!	!	!	!	!LO:TX:t=P:problem:kreska pseudotaktowa	!	!	!
.	.	.	.	4d/	.	.	.
=65-	=65-	=65-	=65-	=65-	=65-	=65-	=65-
!	!	!	!	!LO:TX:a:t=P:problem:♮ above	!	!	!
!LO:TX:t=P:problem:kreska pseudotaktowa	!	!	!	!	!	!	!
1A	.	.	.	2fn\	in	4a/	.
.	.	.	.	.	.	4g/	.
.	.	2c\	.	1e	.	4a/	.
.	.	.	.	.	.	4b-/	.
!LO:LB:g=original	!	!	!	!	!	!	!
2F/	in	2A/	ex-	.	.	2cc\	.
!LO:TX:t=P:problem:kreska pseudotaktowa	!	!	!	!	!	!	!
2G/	ex-	2B-/	.	1d/	ex-	1b-\	.
=66-	=66-	=66-	=66-	=66-	=66-	=66-	=66-
1E	.	2G/	-cel-	.	.	.	.
!	!	!LO:TX:t=P:problem:kreska pseudotaktowa	!	!	!	!	!
.	.	2G/	-ſis.	2c/	-cel-	4a/	-sis.
.	.	.	.	.	.	4g/	.
!LO:TX:t=P:problem:kreska pseudotaktowa	!	!	!	!LO:TX:t=P:problem:kreska pseudotaktowa	!	!LO:TX:t=P:problem:kreska pseudotaktowa	!
1D	-cel-	2A/	O-	1d	-ſis.	1f	.
.	.	1B-/	-san-	.	.	.	.
!	!	!	!	!	!	!LO:LB:g=original	!
=67-	=67-	=67-	=67-	=67-	=67-	=67-	=67-
!LO:TX:t=P:problem:kreska pseudotaktowa	!	!	!	!	!	!	!
1G	-ſis.	.	.	2rd	.	2rg	.
.	.	4A/	.	1d	O-	1g	O-
.	.	4G/	.	.	.	.	.
1r	.	2B-/	.	.	.	.	.
!	!	!LO:TX:t=P:problem:kreska pseudotaktowa	!	!	!	!	!
.	.	2c/	-na	2e\	-san-	2a/	-san-
=68-	=68-	=68-	=68-	=68-	=68-	=68-	=68-
*	*	*lig	*	*	*	*	*
2rF	.	1d	in	2f\	-na	2.b-/	-na
1G	O-	.	.	1B-	.	.	.
.	.	.	.	.	.	8a/L	.
.	.	.	.	.	.	8g/J	.
.	.	1e	.	.	.	2b-/	.
!LO:TX:t=P:problem:kreska pseudotaktowa	!	!	!	!LO:TX:t=P:problem:kreska pseudotaktowa	!	!	!
2A\	-san-	.	.	2c/	in	2a/	in
*	*	*Xlig	*	*	*	*	*
=69-	=69-	=69-	=69-	=69-	=69-	=69-	=69-
!	!	!LO:TX:t=P:problem:kreska pseudotaktowa	!	!	!	!	!
2.B-\	-na	[<1d	ex-	2d/	ex-	1f	ex-
.	.	.	.	4B-/	.	.	.
8A/L	.	.	.	4c/	-cel-	.	.
!LO:TX:t=P:problem:kreska pseudotaktowa	!	!	!	!	!	!	!
8G/J	.	.	.	.	.	.	.
!	!	!LO:N:xstem:cue	!	!	!	!	!
!	!	!LO:N:vis=4	!	!	!	!	!
2B-\	in	2d]	.	4d/	.	2g/	.
.	.	.	.	4e/	.	.	.
!LO:TX:t=P:problem:kreska pseudotaktowa	!	!	!	!	!	!	!
2A\	ex-	1c\	.	1f\	.	2.a/	-cel-
=70-	=70-	=70-	=70-	=70-	=70-	=70-	=70-
2F/	-cel-	.	.	.	.	.	.
.	.	.	.	.	.	4g/	.
2G/	.	2B-/	.	2e\	.	1g	.
1D	.	1A	-cel-	1d	.	.	.
.	.	.	.	.	.	2f#X/	.
=71-	=71-	=71-	=71-	=71-	=71-	=71-	=71-
0G;>	-sis.	0Bn;>	-ſis.	0d;>	-sis.	0g;>	-sis.
!	!	!	!	!LO:TX:a:t=P:problem:w źródle ta adnotacja zapisana na pięciolinii	!	!	!
!	!	!	!	!LO:TX:a:i:t=Benedictus Vertat à3.	!	!	!
!	!	!LO:LB:g=original	!	!LO:PB:g=original	!	!	!
=72||	=72||	=72||	=72||	=72||	=72||	=72||	=72||
*M2/1	*	*M2/1	*	*M2/1	*	*M2/1	*
*met(C|)	*	*met(C|)	*	*met(C|)	*	*met(C|)	*
!LO:TX:a:t=P:problem:w źródle ta adnotacja zapisana na pięciolinii	!	!	!	!	!	!	!
!LO:TX:a:i:t=Benedictus \nTacet	!	!	!	!	!	!	!
0ryy	.	00r	.	1d	Be-	0r	.
.	.	.	.	1.g	-ne-	.	.
=73-	=73-	=73-	=73-	=73-	=73-	=73-	=73-
!	!	!	!	!	!	!LO:TX:t=P:problem:kreska pseudotaktowa	!
0ryy	.	.	.	.	.	1r	.
.	.	.	.	2a\	.	.	.
.	.	.	.	2.b-\	-di-	1g	Be-
.	.	.	.	4a\	.	.	.
=74-	=74-	=74-	=74-	=74-	=74-	=74-	=74-
0ryy	.	0r	.	4g\	.	1.dd	-ne-
.	.	.	.	4f\	.	.	.
.	.	.	.	1g	.	.	.
.	.	.	.	4f\	.	2ee\	-di-
.	.	.	.	4e\	.	.	.
=75-	=75-	=75-	=75-	=75-	=75-	=75-	=75-
!	!	!LO:TX:t=P:problem:kreska pseudotaktowa	!	!	!	!	!
0ryy	.	1r	.	2d/	-ctus	2.ff\	-ctus
.	.	.	.	2f\	.	.	.
.	.	.	.	.	.	4ee\	.
.	.	1G	Be-	2g\	.	4dd\	.
.	.	.	.	.	.	4cc\	.
*	*	*	*	*	*	*	*ij
.	.	.	.	1b-\	Be-	2.dd\	Be-
=76-	=76-	=76-	=76-	=76-	=76-	=76-	=76-
0ryy	.	1.d	-ne-	.	.	.	.
.	.	.	.	.	.	4cc\	.
.	.	.	.	2.a\	.	4b-\	-ne-
.	.	.	.	.	.	4a\	.
.	.	.	.	.	.	1b-	-di-
.	.	.	.	4f\	-ne-	.	.
!	!	!	!	!LO:TX:t=P:problem:kreska pseudotaktowa	!	!	!
.	.	2e\	di-	2g\	.	.	.
=77-	=77-	=77-	=77-	=77-	=77-	=77-	=77-
!	!	!	!	!	!	!LO:TX:t=P:problem:kreska pseudotaktowa	!
0ryy	.	2.f\	-ctus	2.d/	.	0a	-ctus
*	*	*	*	*	*	*	*Xij
.	.	4e\	.	4e/	.	.	.
.	.	4d\	.	4f\	.	.	.
.	.	4c\	.	4g\	.	.	.
.	.	2.d\	Be-	2.f\	.	.	.
=78-	=78-	=78-	=78-	=78-	=78-	=78-	=78-
0ryy	.	.	.	.	.	0dd	Be-
.	.	4c/	.	4e\	.	.	.
.	.	4B-/	-ne-	1a	-di-	.	.
!	!	!LO:TX:t=P:problem:kreska pseudotaktowa	!	!	!	!	!
.	.	4A/	.	.	.	.	.
.	.	1B-	.	.	.	.	.
.	.	.	.	2g\	.	.	.
=79-	=79-	=79-	=79-	=79-	=79-	=79-	=79-
0ryy	.	1A	.	1a	-ctus	2.cc\	-ne-
.	.	.	.	.	.	4dd\	.
.	.	2.A/	.	2e\	.	2ee\	.
*	*	*	*	*	*ij	*	*
.	.	.	.	2a\	Be-	2ff\	.
.	.	4B-/	-di-	.	.	.	.
=80-	=80-	=80-	=80-	=80-	=80-	=80-	=80-
0ryy	.	2c/	.	2g\	.	2ee\	-di-
.	.	2d\	.	2f\	-ne-	1dd	.
!	!	!LO:TX:t=P:problem:kreska pseudotaktowa	!	!	!	!	!
.	.	1A	-ctus	1e	-di-	.	.
.	.	.	.	.	.	2cc\	.
=81-	=81-	=81-	=81-	=81-	=81-	=81-	=81-
!	!	!	!	!LO:TX:t=P:problem:kreska pseudotaktowa	!	!LO:TX:t=P:problem:kreska pseudotaktowa	!
0ryy	.	2rA	.	1d	-ctus	0dd	-ct(us)
*	*	*	*	*	*Xij	*	*
.	.	2.G/	Qui	.	.	.	.
.	.	.	.	2rc	.	.	.
.	.	4F/	.	.	.	.	.
.	.	4G/	.	2.d/	Qui	.	.
.	.	4A/	ve-	.	.	.	.
=82-	=82-	=82-	=82-	=82-	=82-	=82-	=82-
!	!	!	!	!	!	!LO:TX:t=P:problem:kreska pseudotaktowa	!
0ryy	.	1B-	.	.	.	0r	.
.	.	.	.	4c/	.	.	.
.	.	.	.	4d/	.	.	.
.	.	.	.	4e/	.	.	.
.	.	2A/	.	2f\	ve-	.	.
.	.	2G/	.	2e\	.	.	.
=83-	=83-	=83-	=83-	=83-	=83-	=83-	=83-
0ryy	.	1.B-	.	2d/	.	2.dd\	Qui
.	.	.	.	2.f\	.	.	.
.	.	.	.	.	.	4cc\	.
.	.	.	.	.	.	4dd\	ve-
.	.	.	.	4g\	.	4ee\	.
!	!	!LO:TX:t=P:problem:kreska pseudotaktowa	!	!	!	!LO:TX:t=P:problem:kreska pseudotaktowa	!
.	.	2F/	.	2.a\	.	2ff\	.
!	!	!	!	!	!	!LO:LB:g=original	!
=84-	=84-	=84-	=84-	=84-	=84-	=84-	=84-
0ryy	.	1G,	-nit	.	.	2ee\	.
.	.	.	.	4f\	.	.	.
.	.	.	.	2g\	.	2dd\	.
!	!	!	!	!LO:TX:t=P:problem:kreska pseudotaktowa	!	!	!
.	.	2.d\	qui	0.a	-nit	1.ff	.
.	.	4c\	.	.	.	.	.
=85-	=85-	=85-	=85-	=85-	=85-	=85-	=85-
0ryy	.	4d\	.	.	.	.	.
.	.	4e\	Ve-	.	.	.	.
!	!	!LO:TX:t=P:problem:kreska pseudotaktowa	!	!	!	!	!
.	.	[<2f	.	.	.	4ee\	.
.	.	.	.	.	.	4dd\	.
.	.	2f]	.	.	.	4cc\	.
.	.	.	.	.	.	4dd\	.
.	.	4e\	.	.	.	4ee\	.
.	.	4d\	.	.	.	4ff\	.
!	!	!	!	!LO:LB:g=original	!	!	!
=86-	=86-	=86-	=86-	=86-	=86-	=86-	=86-
0ryy	.	2c\	.	2r	.	4ee\	.
.	.	.	.	.	.	4dd\	.
.	.	2d\	.	2a\	in	1dd	.
!	!	!LO:TX:t=P:problem:kreska pseudotaktowa	!	!	!	!	!
.	.	1e	-nit	2a\	No-	.	.
!	!	!	!	!	!	!LO:TX:a:t=P:problem:# above	!
.	.	.	.	2g\	-mi-	2cc#X\	.
=87-	=87-	=87-	=87-	=87-	=87-	=87-	=87-
!	!	!	!	!	!	!LO:TX:t=P:problem:kreska pseudotaktowa	!
0ryy	.	2r	.	4f\	-ne	1dd	-nit
.	.	.	.	4e\	.	.	.
.	.	2d\	in	4f\	.	.	.
.	.	.	.	4g\	.	.	.
.	.	2d\	No-	2a\	.	1rff	.
!	!	!	!	!LO:TX:t=P:problem:kreska pseudotaktowa	!	!	!
.	.	2c\	.	2e\	.	.	.
=88-	=88-	=88-	=88-	=88-	=88-	=88-	=88-
0ryy	.	4B-/	-mi-	2f\	Do-	2r	.
.	.	4A/	.	.	.	.	.
.	.	4B-/	-ne	4d/	.	2dd\	in
!	!	!LO:TX:t=P:problem:kreska pseudotaktowa	!	!	!	!	!
.	.	4c/	.	4e/	.	.	.
!	!	!LO:LB:g=original	!	!	!	!	!
.	.	2d\	Do-	4f\	.	2dd\	No-
.	.	.	.	4g\	.	.	.
.	.	2A/	.	2a\	.	2ccny\	-mi-
=89-	=89-	=89-	=89-	=89-	=89-	=89-	=89-
0ryy	.	2B-/	.	2d/	.	4b-\	.
.	.	.	.	.	.	4a\	.
.	.	4G/	.	1g	.	4b-\	-ne
.	.	4A/	.	.	.	4cc\	.
.	.	4B-/	.	.	.	2dd\	.
.	.	4c/	.	.	.	.	.
!	!	!LO:TX:t=P:problem:kreska pseudotaktowa	!	!	!	!	!
.	.	2d\	.	2f\	-mi-	2a/	.
=90-	=90-	=90-	=90-	=90-	=90-	=90-	=90-
!	!	!	!	!LO:TX:t=P:problem:kreska pseudotaktowa	!	!	!
0ryy	.	4G/	.	1g	-ni	1.b-	Do-
.	.	4A/	.	.	.	.	.
.	.	4B-/	.	.	.	.	.
.	.	4c/	.	.	.	.	.
.	.	4d\	.	1r	.	.	.
.	.	4e\	.	.	.	.	.
.	.	2f\	.	.	.	2a/	.
=91-	=91-	=91-	=91-	=91-	=91-	=91-	=91-
0ryy	.	2e\	.	2r	.	2g/	.
.	.	2.d\	.	2a\	in	2f/	.
.	.	.	.	2a\	No-	2.e/	.
.	.	4A/	.	.	.	.	.
.	.	2c\	-mi-	2g\	-mi-	.	.
.	.	.	.	.	.	4e/	-mi-
=92-	=92-	=92-	=92-	=92-	=92-	=92-	=92-
!	!	!LO:TX:t=P:problem:kreska pseudotaktowa	!	!	!	!LO:TX:t=P:problem:kreska pseudotaktowa	!
0ryy	.	1d	-ni	4f\	-ne	0d	-ni
.	.	.	.	4e\	.	.	.
.	.	.	.	4f\	.	.	.
!	!	!	!	!LO:TX:t=P:problem:kreska pseudotaktowa	!	!	!
.	.	.	.	4g\	.	.	.
.	.	2r	.	2.a\	.	.	.
.	.	2d\	in	.	.	.	.
.	.	.	.	4g\	.	.	.
=93-	=93-	=93-	=93-	=93-	=93-	=93-	=93-
0ryy	.	2d\	No-	2f\	.	1r	.
.	.	2c\	-mi-	2e\	.	.	.
.	.	4B-/	.	2.d/	Do-	2r	.
.	.	4A/	.	.	.	.	.
.	.	4B-/	-ne	.	.	2dd\	in
!	!	!LO:TX:t=P:problem:kreska pseudotaktowa	!	!	!	!	!
.	.	4c/	.	4e/	.	.	.
=94-	=94-	=94-	=94-	=94-	=94-	=94-	=94-
0ryy	.	2d\	.	4f\	.	2dd\	No-
.	.	.	.	4g\	.	.	.
!	!	!	!	!	!	!LO:TX:t=P:problem:kreska pseudotaktowa	!
.	.	2A/	Do-	1a	.	2cc\	-mi-
.	.	2B-/	.	.	.	4b-/	.
.	.	.	.	.	.	4a/	.
.	.	4G/	.	1g\	.	4b-/	-ne
.	.	4A/	.	.	.	4cc/	.
=95-	=95-	=95-	=95-	=95-	=95-	=95-	=95-
0ryy	.	4B-/	.	.	.	2dd\	.
.	.	4c/	.	.	.	.	.
!	!	!LO:TX:t=P:problem:kreska pseudotaktowa	!	!LO:TX:t=P:problem:kreska pseudotaktowa	!	!	!
.	.	2d\	.	2f\	.	2a/	.
.	.	2G/	.	2g\	.	2b-/	Do-
.	.	2c\	-mi-	2e\	.	4g/	.
.	.	.	.	.	.	4a/	.
=96-	=96-	=96-	=96-	=96-	=96-	=96-	=96-
0ryy	.	2B-,/	-ni	2d/	.	4b-\	.
.	.	.	.	.	.	4cc\	.
.	.	2G/	in	2.d/	.	4dd\	.
!	!	!	!	!	!	!LO:TX:t=P:problem:kreska pseudotaktowa	!
.	.	.	.	.	.	4ee\	.
.	.	2.d\	No-	.	.	2.ff\	.
.	.	.	.	4e/	.	.	.
.	.	.	.	4f\	.	.	.
.	.	8c/L	.	4g\	.	8ee\L	.
.	.	8B-/J	.	.	.	8dd\J	.
=97-	=97-	=97-	=97-	=97-	=97-	=97-	=97-
0ryy	.	2A/	.	2a\	.	2cc\	.
!	!	!	!	!	!	!LO:N:vis=1.	!
!	!	!LO:TX:t=P:problem:kreska pseudotaktowa	!	!LO:TX:t=P:problem:kreska pseudotaktowa	!	!	!
.	.	2G/	-mi-	[>2b-	.	[1dd	.
.	.	2.B-/	-ne	2b-]	.	.	.
.	.	.	.	4a\	.	4dd]yy	.
.	.	4c/	.	4g\	.	8cc\L	.
!	!	!	!	!	!	!LO:TX:t=P:problem:kreska pseudotaktowa	!
.	.	.	.	.	.	8b-\J	.
=98-	=98-	=98-	=98-	=98-	=98-	=98-	=98-
0ryy	.	2d\	Do-	2f\	-mi-	2a/	.
.	.	2e\	.	1g	.	2g/	.
.	.	1d	-mi-	.	.	2.a/	.
.	.	.	.	2f\	-ni.	.	.
.	.	.	.	.	.	4a/	-mi-
=99-	=99-	=99-	=99-	=99-	=99-	=99-	=99-
!LO:TX:a:t=P:problem:w źródle ta adnotacja zapisana na pięciolinii	!	!LO:TX:a:t=P:problem:w źródle ta adnotacja zapisana na pięciolinii	!	!	!	!	!
!LO:TX:b:i:t=Osanna Da Capo //	!	!LO:TX:b:i:t=Osanna \nda Capo.	!	!LO:TX:b:i:t=Osanna ut supra	!	!LO:TX:b:i:t=Osanna ut supra.	!
0ryy	.	0G;>	-ni.	0g;>	.	0bn;>	-ni.
==	==	==	==	==	==	==	==
*-	*-	*-	*-	*-	*-	*-	*-
!!!system-decoration: [(s1,s2,s3,s4)]
!!!RDF**kern: > = above
!!!RDF**kern: < = below
!!!EED: Antoni Szymański
!!!EST: 2021-03-17
!!!ENC:Berenika Jozajtis
!!!END:2021-03-02
